%
O0001 (09 SGS TUNER HOLES)
(MAPLE 20.9 MM THICK)
(MDF 6 MM THICK)
G49 G40 G80 G90 (6MM SLOT MILL)
G54 G17 G21
M6 T9 G43 H9
G97 S1500 M3
G94 F240 M8
G0 X0 Y0
G52 X209.81 Y5
G0 X0 Y0
X30
Z3
G1 Z2
G98 G83 X64.69 Y53.05 Z-21.9 Q2.19 F80
X57.95 Y75.1 
X51.21 Y97.16 
X44.46 Y119.21 
X37.72 Y141.27 
X30.98 Y163.33 
X124.02 Y696.67 
X117.28 Y718.73 
X110.53 Y740.79 
X103.79 Y762.84 
X97.05 Y784.9 
X90.31 Y806.95 
G80
M98 P1401 L1
M30 (PROGRAM END)

O1401 (SUB MACHINE ZR)
G0 Z3
G91 G28 Z0
G28 X0
G28 Y0
G90
M9 M5
M0
M99
%
